X:1
T:Gigha. SenH.005
T:Gigha. SenH.005
T:in Hand A
C:in Hand A
L:1/8
Q:1/4=100
M:12/8
K:C
V:1 treble 
V:1
 g | e2 g d2 g c3 z2 G | (Ac)f (Bd)g (edc) z2 g | (edc) (Bdg) (ceg) (Bdg) | (e^fg) (Agf) G3 z2 z | %5
 (cde) c2 e A2 z2 A | (def) dfd B3 z2 B | (efg) e2 g c3 z2 c | (fga) (aba) (gc'g) (ece) | %9
 (fga) (Bdg) (cea) (aba) | (Bdg) (gag) (Acf) (fgf) | (GBe) (efe) (FAd) (ded) | %12
 (eGc) (gfe) (deF) d2 c |"^As written" c6- c3- c2 B | (A2 c) (G2 c) (F2 c) c2 d | %15
 (edc) G2 B c3- c2 B | (A2 c) (G2 c) (F2 B) c2 d | edc G2 B c3- c3 | c3 z2 c (def) (def) | %19
 e3 z2 e (^fga) (fga) | b2 d e3 z2 A d3 | z2 G c3 z2 f b3 | z2 e a3 z2 d G2 d | g2 B A3 G2 d g2 B | %24
 e2 A A3 G3- G3 || d | B2 d A2 d B2 d G2 e | (cBA) (ea^g) a3 z2 a | %28
 ^f2 a e2 a f2 a d2 a (fed) A2 ^c | d3 z3 z3 z2 b | g2 b f2 b g2 b e2 b | (gfe) Ae^d e6 | %32
 e3- e2 d c2 e B2 e | A2 ^d e2 f (gfe) Aed | e3 z3 z3 z2!D.C.! |] %35

